X:117
M:4/4
L:1/4
K:G
G2 G G | G F A2 | D2 D E | D4 | D2 B B | B A d2 | A2 F E | D4 | A2 B A | A G D2 | c2 B A | A G D2 | !sintro!B2 e d | d c (B A) | G2 A F | G4 !eintro!|]
